X: 34084
T: Reel De Sainte Blandine
R: reel
M: 4/4
K: Fmajor
C2|:F2 Ac fgfe|dcde fdcA|F2 Ac BAGF|EGGA GGAG|
F2 Ac fgfe|dcde f3 ^c|d2 d^c dBGE|1 FAGE F2C2:|2 FAGE F3a||
|:CFFG AcAF|EFGA BABG|CFFG AcAF|EFGE C2 (3cAF|
CFFG AcAF|EFGA Bz GG|ABcA dBGE|1 FAGE F3a:|2 FAGE F2||

